flaticon/productivity/panel.svg

<svg xmlns="http://www.w3.org/2000/svg" width="32" height="32" viewBox="0 0 24 24">
    <path d="M 20.761719 6.925781 L 12.144531 6.925781 L 12.144531 4.601562 L 18.335938 4.601562 C 18.445312 4.601562 18.554688 4.566406 18.640625 4.503906 L 21.066406 2.710938 C 21.359375 2.507812 21.332031 2.097656 21.066406 1.890625 L 18.640625 0.101562 C 18.554688 0.0351562 18.445312 0 18.335938 0 L 3.238281 0 C 2.957031 0 2.726562 0.226562 2.726562 0.511719 L 2.726562 4.09375 C 2.726562 4.375 2.957031 4.601562 3.238281 4.601562 L 11.121094 4.601562 L 11.121094 6.925781 L 5.664062 6.925781 C 5.554688 6.925781 5.449219 6.960938 5.359375 7.023438 L 2.933594 8.816406 C 2.601562 9.070312 2.714844 9.480469 2.933594 9.636719 L 5.359375 11.429688 C 5.449219 11.492188 5.554688 11.527344 5.664062 11.527344 L 11.121094 11.527344 L 11.121094 22.980469 L 6.722656 22.980469 L 6.722656 24 L 16.542969 24 L 16.542969 22.980469 L 12.144531 22.980469 L 12.144531 11.527344 L 20.761719 11.527344 C 21.042969 11.527344 21.273438 11.300781 21.273438 11.019531 L 21.273438 7.4375 C 21.273438 7.152344 21.042969 6.925781 20.761719 6.925781 Z M 3.75 1.019531 L 18.167969 1.019531 L 19.902344 2.300781 L 18.167969 3.582031 L 3.75 3.582031 Z M 20.25 10.507812 L 5.832031 10.507812 L 4.097656 9.226562 L 5.832031 7.945312 L 20.25 7.945312 Z M 20.25 10.507812"/>
</svg>

<svg xmlns="http://www.w3.org/2000/svg" width="32" height="32" viewBox="0 0 24 24">
    <path d="M20.762 6.926h-8.617V4.602h6.19c.11 0 .22-.036.306-.098l2.425-1.793c.293-.203.266-.613 0-.82L18.641.1A.502.502 0 0 0 18.336 0H3.238a.511.511 0 0 0-.511.512v3.582c0 .281.23.508.511.508h7.883v2.324H5.664a.533.533 0 0 0-.305.097L2.934 8.816a.509.509 0 0 0 0 .82l2.425 1.794c.09.062.196.097.305.097h5.457V22.98H6.723V24h9.82v-1.02h-4.398V11.527h8.617a.51.51 0 0 0 .511-.507V7.438a.511.511 0 0 0-.511-.512zM3.75 1.02h14.418l1.734 1.28-1.734 1.282H3.75zm16.5 9.488H5.832L4.098 9.227l1.734-1.282H20.25zm0 0"/>
</svg>
